img/icons/icon-vk.svg

<svg width="27" height="16" viewBox="0 0 27 16" fill="none" xmlns="http://www.w3.org/2000/svg">
<path d="M16.138 12.51C17.094 12.201 18.318 14.55 19.621 15.449C20.599 16.13 21.348 15.983 21.348 15.983L24.821 15.933C24.821 15.933 26.636 15.821 25.778 14.379C25.707 14.259 25.275 13.31 23.193 11.357C21.016 9.31398 21.311 9.64498 23.932 6.11298C25.529 3.95998 26.168 2.64498 25.968 2.08498C25.776 1.54598 24.603 1.68598 24.603 1.68598L20.69 1.71298C20.309 1.71398 19.986 1.83198 19.839 2.22798C19.836 2.23198 19.218 3.89398 18.394 5.30698C16.653 8.29598 15.958 8.45498 15.67 8.26798C15.009 7.83498 15.176 6.53098 15.176 5.60398C15.176 2.70698 15.608 1.49898 14.33 1.18698C13.903 1.08298 13.591 1.01498 12.502 1.00498C11.11 0.983976 9.928 1.00498 9.258 1.33398C8.813 1.55698 8.472 2.04598 8.679 2.07398C8.939 2.10898 9.522 2.23398 9.834 2.65998C10.235 3.21198 10.223 4.44898 10.223 4.44898C10.223 4.44898 10.452 7.85998 9.683 8.28298C9.155 8.57298 8.433 7.98098 6.88 5.26698C6.087 3.87898 5.488 2.34498 5.488 2.34498C5.488 2.34498 5.372 2.05998 5.162 1.90398C4.912 1.71898 4.562 1.65998 4.562 1.65998L0.848 1.68398C0.848 1.68398 0.29 1.69998 0.0850002 1.94598C-0.0969998 2.16398 0.0700002 2.61398 0.0700002 2.61398C0.0700002 2.61398 2.979 9.49498 6.273 12.961C9.293 16.143 12.725 15.932 12.725 15.932H14.28C14.28 15.932 14.749 15.878 14.989 15.62C15.213 15.38 15.203 14.929 15.203 14.929C15.203 14.929 15.172 12.82 16.138 12.51Z" fill="white"/>
</svg>

<svg width="27" height="16" fill="none" xmlns="http://www.w3.org/2000/svg"><path d="M16.14 12.51c.95-.3 2.18 2.04 3.48 2.94.98.68 1.73.53 1.73.53l3.47-.05s1.82-.1.96-1.55c-.07-.12-.5-1.07-2.59-3.02-2.17-2.05-1.88-1.72.74-5.25 1.6-2.15 2.24-3.47 2.04-4.03-.2-.53-1.37-.4-1.37-.4l-3.91.03c-.38 0-.7.12-.85.52 0 0-.62 1.66-1.45 3.08-1.74 2.99-2.43 3.14-2.72 2.96-.66-.44-.5-1.74-.5-2.67 0-2.9.44-4.1-.84-4.41A6.6 6.6 0 0012.5 1c-1.39-.02-2.57 0-3.24.33-.45.23-.79.72-.58.74.26.04.84.16 1.15.59.4.55.4 1.79.4 1.79s.22 3.41-.55 3.83c-.53.3-1.25-.3-2.8-3.01-.8-1.4-1.4-2.93-1.4-2.93s-.1-.28-.32-.44c-.25-.18-.6-.24-.6-.24l-3.71.02s-.56.02-.76.27c-.19.21-.02.66-.02.66s2.9 6.88 6.2 10.35c3.02 3.18 6.46 2.97 6.46 2.97h1.55s.47-.05.7-.31c.23-.24.22-.7.22-.7s-.03-2.1.94-2.41z" fill="#fff"/></svg>
